; G-Code generated by Simplify3D(R) Version 4.0.0
; Dec 11, 2022 at 12:07:01 PM
; Settings Summary
;   processName,Process1
;   applyToModels,Unnamed1-GLA_08
;   profileName,PLA_Standard (modified)
;   profileVersion,2022-03-05 15:44:09
;   baseProfile,
;   printMaterial,
;   printQuality,
;   printExtruders,
;   extruderName,Primary Extruder
;   extruderToolheadNumber,0
;   extruderDiameter,0.4
;   extruderAutoWidth,0
;   extruderWidth,0.35
;   extrusionMultiplier,1
;   extruderUseRetract,1
;   extruderRetractionDistance,5
;   extruderExtraRestartDistance,0
;   extruderRetractionZLift,0.15
;   extruderRetractionSpeed,3600
;   extruderUseCoasting,1
;   extruderCoastingDistance,0.2
;   extruderUseWipe,0
;   extruderWipeDistance,5
;   primaryExtruder,0
;   layerHeight,0.2
;   topSolidLayers,3
;   bottomSolidLayers,3
;   perimeterOutlines,3
;   printPerimetersInsideOut,1
;   startPointOption,1
;   startPointOriginX,0
;   startPointOriginY,0
;   sequentialIslands,0
;   spiralVaseMode,0
;   firstLayerHeightPercentage,100
;   firstLayerWidthPercentage,100
;   firstLayerUnderspeed,0.5
;   useRaft,0
;   raftExtruder,0
;   raftTopLayers,3
;   raftBaseLayers,2
;   raftOffset,3
;   raftSeparationDistance,0.14
;   raftTopInfill,100
;   aboveRaftSpeedMultiplier,0.28
;   useSkirt,1
;   skirtExtruder,0
;   skirtLayers,1
;   skirtOutlines,2
;   skirtOffset,2
;   usePrimePillar,0
;   primePillarExtruder,999
;   primePillarWidth,10
;   primePillarLocation,4
;   primePillarSpeedMultiplier,1
;   useOozeShield,0
;   oozeShieldExtruder,999
;   oozeShieldOffset,2
;   oozeShieldOutlines,1
;   oozeShieldSidewallShape,1
;   oozeShieldSidewallAngle,30
;   oozeShieldSpeedMultiplier,1
;   infillExtruder,0
;   internalInfillPattern,Rectilinear
;   externalInfillPattern,Rectilinear
;   infillPercentage,100
;   outlineOverlapPercentage,20
;   infillExtrusionWidthPercentage,100
;   minInfillLength,3
;   infillLayerInterval,1
;   internalInfillAngles,45,-45
;   overlapInternalInfillAngles,0
;   externalInfillAngles,45,-45
;   generateSupport,0
;   supportExtruder,0
;   supportInfillPercentage,45
;   supportExtraInflation,0
;   supportBaseLayers,0
;   denseSupportExtruder,0
;   denseSupportLayers,0
;   denseSupportInfillPercentage,70
;   supportLayerInterval,1
;   supportHorizontalPartOffset,0.3
;   supportUpperSeparationLayers,1
;   supportLowerSeparationLayers,1
;   supportType,0
;   supportGridSpacing,1
;   maxOverhangAngle,30
;   supportAngles,0,90
;   temperatureName,Primary Extruder,Bed
;   temperatureNumber,0,1
;   temperatureSetpointCount,1,1
;   temperatureSetpointLayers,1,1
;   temperatureSetpointTemperatures,220,60
;   temperatureStabilizeAtStartup,1,1
;   temperatureHeatedBed,0,1
;   temperatureRelayBetweenLayers,0,0
;   temperatureRelayBetweenLoops,0,0
;   fanLayers,1,2
;   fanSpeeds,0,100
;   blipFanToFullPower,0
;   adjustSpeedForCooling,1
;   minSpeedLayerTime,15
;   minCoolingSpeedSlowdown,20
;   increaseFanForCooling,0
;   minFanLayerTime,45
;   maxCoolingFanSpeed,100
;   increaseFanForBridging,0
;   bridgingFanSpeed,100
;   use5D,1
;   relativeEdistances,0
;   allowEaxisZeroing,1
;   independentExtruderAxes,0
;   includeM10123,0
;   stickySupport,1
;   applyToolheadOffsets,0
;   gcodeXoffset,0
;   gcodeYoffset,0
;   gcodeZoffset,0
;   overrideMachineDefinition,1
;   machineTypeOverride,0
;   strokeXoverride,205
;   strokeYoverride,205
;   strokeZoverride,205
;   originOffsetXoverride,0
;   originOffsetYoverride,0
;   originOffsetZoverride,0
;   homeXdirOverride,-1
;   homeYdirOverride,-1
;   homeZdirOverride,-1
;   flipXoverride,1
;   flipYoverride,-1
;   flipZoverride,1
;   toolheadOffsets,0,0|0,0|0,0|0,0|0,0|0,0
;   overrideFirmwareConfiguration,0
;   firmwareTypeOverride,RepRap (Marlin/Repetier/Sprinter)
;   GPXconfigOverride,r2
;   baudRateOverride,115200
;   overridePrinterModels,0
;   printerModelsOverride
;   startingGcode,G28 ; home all axes
;   layerChangeGcode,
;   retractionGcode,
;   toolChangeGcode,
;   endingGcode,M104 S0 ; turn off extruder,M140 S0 ; turn off bed,G91 ; set relative mode,G0 Z10 F3000 ; move 10mm up,G90 ; set absolute mode,G1 X0 Y0 F3000 ; move X and Y home,M84 ; disable motors,G4 P60000 ; wait 2 minutes,M106 S0  ; turn off fan
;   exportFileFormat,gcode
;   celebration,0
;   celebrationSong,Random Song
;   postProcessing,
;   defaultSpeed,3600
;   outlineUnderspeed,0.5
;   solidInfillUnderspeed,0.8
;   supportUnderspeed,0.8
;   rapidXYspeed,4800
;   rapidZspeed,1000
;   minBridgingArea,50
;   bridgingExtraInflation,0
;   bridgingExtrusionMultiplier,1
;   bridgingSpeedMultiplier,1
;   useFixedBridgingAngle,0
;   fixedBridgingAngle,0
;   applyBridgingToPerimeters,0
;   filamentDiameters,1.75|1.75|1.75|1.75|1.75|1.75
;   filamentPricesPerKg,30|46|46|46|46|46
;   filamentDensities,1.25|1.25|1.25|1.25|1.25|1.25
;   useMinPrintHeight,0
;   minPrintHeight,0
;   useMaxPrintHeight,0
;   maxPrintHeight,0
;   useDiaphragm,0
;   diaphragmLayerInterval,20
;   robustSlicing,1
;   mergeAllIntoSolid,0
;   onlyRetractWhenCrossingOutline,1
;   retractBetweenLayers,1
;   useRetractionMinTravel,0
;   retractionMinTravel,3
;   retractWhileWiping,0
;   onlyWipeOutlines,1
;   avoidCrossingOutline,0
;   maxMovementDetourFactor,3
;   toolChangeRetractionDistance,12
;   toolChangeExtraRestartDistance,-0.5
;   toolChangeRetractionSpeed,600
;   externalThinWallType,0
;   internalThinWallType,2
;   thinWallAllowedOverlapPercentage,10
;   singleExtrusionMinLength,1
;   singleExtrusionMinPrintingWidthPercentage,50
;   singleExtrusionMaxPrintingWidthPercentage,200
;   singleExtrusionEndpointExtension,0.2
;   horizontalSizeCompensation,0
G90
M82
M106 S0
M140 S60
M190 S60
M104 S220 T0
M109 S220 T0
G28 ; home all axes
G92 E0
G1 E-5.0000 F3600
G1 Z0.350 F1000
; process Process1
; layer 1, Z = 0.200
T0
; tool H0.200 W0.350
; skirt
G1 X10.538 Y93.958 F4800
G1 Z0.200 F1000
G1 E0.0000 F1080
G92 E0
G1 X194.458 Y93.958 E5.3525 F1800
G1 X194.650 Y94.038 E5.3586
G1 X195.970 Y95.357 E5.4129
G1 X196.050 Y95.550 E5.4190
G1 X196.050 Y105.672 E5.7136
G1 X195.970 Y105.865 E5.7196
G1 X194.650 Y107.184 E5.7739
G1 X194.458 Y107.264 E5.7800
G1 X10.538 Y107.264 E11.1325
G1 X10.345 Y107.184 E11.1386
G1 X9.026 Y105.865 E11.1929
G1 X8.946 Y105.672 E11.1990
G1 X8.946 Y95.550 E11.4936
G1 X9.026 Y95.357 E11.4996
G1 X10.345 Y94.038 E11.5539
G1 X10.353 Y94.035 E11.5542
G1 X10.538 Y93.958 F1800
G1 X10.607 Y94.308 F4800
G92 E0
G1 X194.388 Y94.308 E5.3485 F1800
G1 X194.452 Y94.335 E5.3505
G1 X195.673 Y95.556 E5.4008
G1 X195.700 Y95.620 E5.4028
G1 X195.700 Y105.602 E5.6933
G1 X195.673 Y105.666 E5.6953
G1 X194.452 Y106.887 E5.7456
G1 X194.388 Y106.914 E5.7476
G1 X10.607 Y106.914 E11.0961
G1 X10.543 Y106.887 E11.0981
G1 X9.322 Y105.666 E11.1484
G1 X9.296 Y105.602 E11.1504
G1 X9.296 Y95.620 E11.4409
G1 X9.322 Y95.556 E11.4429
G1 X10.451 Y94.427 E11.4894
G1 X10.543 Y94.335 F1800
G1 X10.607 Y94.308 F1800
G92 E0
G1 E-5.0000 F3600
G1 Z0.350 F1000
; inner perimeter
G1 X192.650 Y97.358 F4800
G1 Z0.200 F1000
G1 E0.0000 F3600
G92 E0
G1 X192.650 Y103.864 E0.1893 F1350
G1 X12.346 Y103.864 E5.4366
G1 X12.346 Y97.358 E5.6260
G1 X192.450 Y97.358 E10.8675
G1 X192.650 Y97.358 F1350
G1 X193.000 Y104.214 F4800
G92 E0
G1 X11.996 Y104.214 E5.2677 F1350
G1 X11.996 Y97.008 E5.4774
G1 X193.000 Y97.008 E10.7451
G1 X193.000 Y104.014 E10.9490
G1 X193.000 Y104.214 F1350
; outer perimeter
G1 X11.646 Y96.658 F4800
G92 E0
G1 X193.350 Y96.658 E5.2881 F900
G1 X193.350 Y104.564 E5.5181
G1 X11.646 Y104.564 E10.8062
G1 X11.646 Y96.858 E11.0304
G1 X11.646 Y96.658 F900
; solid layer
G1 X12.999 Y103.584 F4800
G92 E0
G1 X12.626 Y103.210 E0.0154 F1440
G1 X12.626 Y102.715 E0.0298
G1 X13.494 Y103.584 E0.0655
G1 X13.989 Y103.584 E0.0799
G1 X12.626 Y102.220 E0.1360
G1 X12.626 Y101.725 E0.1504
G1 X14.484 Y103.584 E0.2269
G1 X14.979 Y103.584 E0.2413
G1 X12.626 Y101.230 E0.3382
G1 X12.626 Y100.735 E0.3526
G1 X15.474 Y103.584 E0.4698
G1 X15.969 Y103.584 E0.4842
G1 X12.626 Y100.240 E0.6218
G1 X12.626 Y99.746 E0.6362
G1 X16.464 Y103.584 E0.7942
G1 X16.959 Y103.584 E0.8086
G1 X12.626 Y99.251 E0.9870
G1 X12.626 Y98.756 E1.0014
G1 X17.454 Y103.584 E1.2001
G1 X17.949 Y103.584 E1.2145
G1 X12.626 Y98.261 E1.4336
G1 X12.626 Y97.766 E1.4480
G1 X18.444 Y103.584 E1.6874
G1 X18.939 Y103.584 E1.7018
G1 X12.993 Y97.638 E1.9465
G1 X13.488 Y97.638 E1.9609
G1 X19.434 Y103.584 E2.2056
G1 X19.929 Y103.584 E2.2201
G1 X13.983 Y97.638 E2.4648
G1 X14.478 Y97.638 E2.4792
G1 X20.424 Y103.584 E2.7239
G1 X20.919 Y103.584 E2.7383
G1 X14.973 Y97.638 E2.9830
G1 X15.468 Y97.638 E2.9974
G1 X21.414 Y103.584 E3.2421
G1 X21.909 Y103.584 E3.2565
G1 X15.963 Y97.638 E3.5012
G1 X16.458 Y97.638 E3.5156
G1 X22.404 Y103.584 E3.7603
G1 X22.899 Y103.584 E3.7747
G1 X16.953 Y97.638 E4.0194
G1 X17.448 Y97.638 E4.0338
G1 X23.394 Y103.584 E4.2785
G1 X23.889 Y103.584 E4.2929
G1 X17.943 Y97.638 E4.5376
G1 X18.438 Y97.638 E4.5520
G1 X24.384 Y103.584 E4.7967
G1 X24.879 Y103.584 E4.8111
G1 X18.933 Y97.638 E5.0558
G1 X19.428 Y97.638 E5.0702
G1 X25.374 Y103.584 E5.3149
G1 X25.868 Y103.584 E5.3293
G1 X19.923 Y97.638 E5.5740
G1 X20.418 Y97.638 E5.5884
G1 X26.363 Y103.584 E5.8331
G1 X26.858 Y103.584 E5.8475
G1 X20.913 Y97.638 E6.0922
G1 X21.408 Y97.638 E6.1066
G1 X27.353 Y103.584 E6.3513
G1 X27.848 Y103.584 E6.3657
G1 X21.903 Y97.638 E6.6104
G1 X22.398 Y97.638 E6.6249
G1 X28.343 Y103.584 E6.8696
G1 X28.838 Y103.584 E6.8840
G1 X22.893 Y97.638 E7.1287
G1 X23.388 Y97.638 E7.1431
G1 X29.333 Y103.584 E7.3878
G1 X29.828 Y103.584 E7.4022
G1 X23.883 Y97.638 E7.6469
G1 X24.378 Y97.638 E7.6613
G1 X30.323 Y103.584 E7.9060
G1 X30.818 Y103.584 E7.9204
G1 X24.873 Y97.638 E8.1651
G1 X25.368 Y97.638 E8.1795
G1 X31.313 Y103.584 E8.4242
G1 X31.808 Y103.584 E8.4386
G1 X25.863 Y97.638 E8.6833
G1 X26.358 Y97.638 E8.6977
G1 X32.303 Y103.584 E8.9424
G1 X32.798 Y103.584 E8.9568
G1 X26.853 Y97.638 E9.2015
G1 X27.348 Y97.638 E9.2159
G1 X33.293 Y103.584 E9.4606
G1 X33.788 Y103.584 E9.4750
G1 X27.843 Y97.638 E9.7197
G1 X28.338 Y97.638 E9.7341
G1 X34.283 Y103.584 E9.9788
G1 X34.778 Y103.584 E9.9932
G1 X28.833 Y97.638 E10.2379
G1 X29.328 Y97.638 E10.2523
G1 X35.273 Y103.584 E10.4970
G1 X35.768 Y103.584 E10.5114
G1 X29.822 Y97.638 E10.7561
G1 X30.317 Y97.638 E10.7705
G1 X36.263 Y103.584 E11.0152
G1 X36.758 Y103.584 E11.0297
G1 X30.812 Y97.638 E11.2744
G1 X31.307 Y97.638 E11.2888
G1 X37.253 Y103.584 E11.5335
G1 X37.748 Y103.584 E11.5479
G1 X31.802 Y97.638 E11.7926
G1 X32.297 Y97.638 E11.8070
G1 X38.243 Y103.584 E12.0517
G1 X38.738 Y103.584 E12.0661
G1 X32.792 Y97.638 E12.3108
G1 X33.287 Y97.638 E12.3252
G1 X39.233 Y103.584 E12.5699
G1 X39.728 Y103.584 E12.5843
G1 X33.782 Y97.638 E12.8290
G1 X34.277 Y97.638 E12.8434
G1 X40.223 Y103.584 E13.0881
G1 X40.718 Y103.584 E13.1025
G1 X34.772 Y97.638 E13.3472
G1 X35.267 Y97.638 E13.3616
G1 X41.213 Y103.584 E13.6063
G1 X41.708 Y103.584 E13.6207
G1 X35.762 Y97.638 E13.8654
G1 X36.257 Y97.638 E13.8798
G1 X42.203 Y103.584 E14.1245
G1 X42.698 Y103.584 E14.1389
G1 X36.752 Y97.638 E14.3836
G1 X37.247 Y97.638 E14.3980
G1 X43.193 Y103.584 E14.6427
G1 X43.688 Y103.584 E14.6571
G1 X37.742 Y97.638 E14.9018
G1 X38.237 Y97.638 E14.9162
G1 X44.183 Y103.584 E15.1609
G1 X44.678 Y103.584 E15.1753
G1 X38.732 Y97.638 E15.4200
G1 X39.227 Y97.638 E15.4345
G1 X45.172 Y103.584 E15.6792
G1 X45.667 Y103.584 E15.6936
G1 X39.722 Y97.638 E15.9383
G1 X40.217 Y97.638 E15.9527
G1 X46.162 Y103.584 E16.1974
G1 X46.657 Y103.584 E16.2118
G1 X40.712 Y97.638 E16.4565
G1 X41.207 Y97.638 E16.4709
G1 X47.152 Y103.584 E16.7156
G1 X47.647 Y103.584 E16.7300
G1 X41.702 Y97.638 E16.9747
G1 X42.197 Y97.638 E16.9891
G1 X48.142 Y103.584 E17.2338
G1 X48.637 Y103.584 E17.2482
G1 X42.692 Y97.638 E17.4929
G1 X43.187 Y97.638 E17.5073
G1 X49.132 Y103.584 E17.7520
G1 X49.627 Y103.584 E17.7664
G1 X43.682 Y97.638 E18.0111
G1 X44.177 Y97.638 E18.0255
G1 X50.122 Y103.584 E18.2702
G1 X50.617 Y103.584 E18.2846
G1 X44.672 Y97.638 E18.5293
G1 X45.167 Y97.638 E18.5437
G1 X51.112 Y103.584 E18.7884
G1 X51.607 Y103.584 E18.8028
G1 X45.662 Y97.638 E19.0475
G1 X46.157 Y97.638 E19.0619
G1 X52.102 Y103.584 E19.3066
G1 X52.597 Y103.584 E19.3210
G1 X46.652 Y97.638 E19.5657
G1 X47.147 Y97.638 E19.5801
G1 X53.092 Y103.584 E19.8248
G1 X53.587 Y103.584 E19.8393
G1 X47.642 Y97.638 E20.0840
G1 X48.137 Y97.638 E20.0984
G1 X54.082 Y103.584 E20.3431
G1 X54.577 Y103.584 E20.3575
G1 X48.632 Y97.638 E20.6022
G1 X49.126 Y97.638 E20.6166
G1 X55.072 Y103.584 E20.8613
G1 X55.567 Y103.584 E20.8757
G1 X49.621 Y97.638 E21.1204
G1 X50.116 Y97.638 E21.1348
G1 X56.062 Y103.584 E21.3795
G1 X56.557 Y103.584 E21.3939
G1 X50.611 Y97.638 E21.6386
G1 X51.106 Y97.638 E21.6530
G1 X57.052 Y103.584 E21.8977
G1 X57.547 Y103.584 E21.9121
G1 X51.601 Y97.638 E22.1568
G1 X52.096 Y97.638 E22.1712
G1 X58.042 Y103.584 E22.4159
G1 X58.537 Y103.584 E22.4303
G1 X52.591 Y97.638 E22.6750
G1 X53.086 Y97.638 E22.6894
G1 X59.032 Y103.584 E22.9341
G1 X59.527 Y103.584 E22.9485
G1 X53.581 Y97.638 E23.1932
G1 X54.076 Y97.638 E23.2076
G1 X60.022 Y103.584 E23.4523
G1 X60.517 Y103.584 E23.4667
G1 X54.571 Y97.638 E23.7114
G1 X55.066 Y97.638 E23.7258
G1 X61.012 Y103.584 E23.9705
G1 X61.507 Y103.584 E23.9849
G1 X55.561 Y97.638 E24.2296
G1 X56.056 Y97.638 E24.2441
G1 X62.002 Y103.584 E24.4888
G1 X62.497 Y103.584 E24.5032
G1 X56.551 Y97.638 E24.7479
G1 X57.046 Y97.638 E24.7623
G1 X62.992 Y103.584 E25.0070
G1 X63.487 Y103.584 E25.0214
G1 X57.541 Y97.638 E25.2661
G1 X58.036 Y97.638 E25.2805
G1 X63.982 Y103.584 E25.5252
G1 X64.477 Y103.584 E25.5396
G1 X58.531 Y97.638 E25.7843
G1 X59.026 Y97.638 E25.7987
G1 X64.971 Y103.584 E26.0434
G1 X65.466 Y103.584 E26.0578
G1 X59.521 Y97.638 E26.3025
G1 X60.016 Y97.638 E26.3169
G1 X65.961 Y103.584 E26.5616
G1 X66.456 Y103.584 E26.5760
G1 X60.511 Y97.638 E26.8207
G1 X61.006 Y97.638 E26.8351
G1 X66.951 Y103.584 E27.0798
G1 X67.446 Y103.584 E27.0942
G1 X61.501 Y97.638 E27.3389
G1 X61.996 Y97.638 E27.3533
G1 X67.941 Y103.584 E27.5980
G1 X68.436 Y103.584 E27.6124
G1 X62.491 Y97.638 E27.8571
G1 X62.986 Y97.638 E27.8715
G1 X68.931 Y103.584 E28.1162
G1 X69.426 Y103.584 E28.1306
G1 X63.481 Y97.638 E28.3753
G1 X63.976 Y97.638 E28.3897
G1 X69.921 Y103.584 E28.6344
G1 X70.416 Y103.584 E28.6489
G1 X64.471 Y97.638 E28.8936
G1 X64.966 Y97.638 E28.9080
G1 X70.911 Y103.584 E29.1527
G1 X71.406 Y103.584 E29.1671
G1 X65.461 Y97.638 E29.4118
G1 X65.956 Y97.638 E29.4262
G1 X71.901 Y103.584 E29.6709
G1 X72.396 Y103.584 E29.6853
G1 X66.451 Y97.638 E29.9300
G1 X66.946 Y97.638 E29.9444
G1 X72.891 Y103.584 E30.1891
G1 X73.386 Y103.584 E30.2035
G1 X67.441 Y97.638 E30.4482
G1 X67.936 Y97.638 E30.4626
G1 X73.881 Y103.584 E30.7073
G1 X74.376 Y103.584 E30.7217
G1 X68.431 Y97.638 E30.9664
G1 X68.925 Y97.638 E30.9808
G1 X74.871 Y103.584 E31.2255
G1 X75.366 Y103.584 E31.2399
G1 X69.420 Y97.638 E31.4846
G1 X69.915 Y97.638 E31.4990
G1 X75.861 Y103.584 E31.7437
G1 X76.356 Y103.584 E31.7581
G1 X70.410 Y97.638 E32.0028
G1 X70.905 Y97.638 E32.0172
G1 X76.851 Y103.584 E32.2619
G1 X77.346 Y103.584 E32.2763
G1 X71.400 Y97.638 E32.5210
G1 X71.895 Y97.638 E32.5354
G1 X77.841 Y103.584 E32.7801
G1 X78.336 Y103.584 E32.7945
G1 X72.390 Y97.638 E33.0392
G1 X72.885 Y97.638 E33.0537
G1 X78.831 Y103.584 E33.2984
G1 X79.326 Y103.584 E33.3128
G1 X73.380 Y97.638 E33.5575
G1 X73.875 Y97.638 E33.5719
G1 X79.821 Y103.584 E33.8166
G1 X80.316 Y103.584 E33.8310
G1 X74.370 Y97.638 E34.0757
G1 X74.865 Y97.638 E34.0901
G1 X80.811 Y103.584 E34.3348
G1 X81.306 Y103.584 E34.3492
G1 X75.360 Y97.638 E34.5939
G1 X75.855 Y97.638 E34.6083
G1 X81.801 Y103.584 E34.8530
G1 X82.296 Y103.584 E34.8674
G1 X76.350 Y97.638 E35.1121
G1 X76.845 Y97.638 E35.1265
G1 X82.791 Y103.584 E35.3712
G1 X83.286 Y103.584 E35.3856
G1 X77.340 Y97.638 E35.6303
G1 X77.835 Y97.638 E35.6447
G1 X83.781 Y103.584 E35.8894
G1 X84.276 Y103.584 E35.9038
G1 X78.330 Y97.638 E36.1485
G1 X78.825 Y97.638 E36.1629
G1 X84.770 Y103.584 E36.4076
G1 X85.265 Y103.584 E36.4220
G1 X79.320 Y97.638 E36.6667
G1 X79.815 Y97.638 E36.6811
G1 X85.760 Y103.584 E36.9258
G1 X86.255 Y103.584 E36.9402
G1 X80.310 Y97.638 E37.1849
G1 X80.805 Y97.638 E37.1993
