; G-Code generated by Simplify3D(R) Version 4.0.0
; Dec 10, 2022 at 7:38:45 PM
; Settings Summary
;   processName,Process1
;   applyToModels,Mainboard-Fusion
;   profileName,PLA_Standard (modified)
;   profileVersion,2022-03-05 15:44:09
;   baseProfile,
;   printMaterial,
;   printQuality,
;   printExtruders,
;   extruderName,Primary Extruder
;   extruderToolheadNumber,0
;   extruderDiameter,0.4
;   extruderAutoWidth,0
;   extruderWidth,0.4
;   extrusionMultiplier,1
;   extruderUseRetract,1
;   extruderRetractionDistance,5
;   extruderExtraRestartDistance,0
;   extruderRetractionZLift,0.15
;   extruderRetractionSpeed,3600
;   extruderUseCoasting,1
;   extruderCoastingDistance,0.2
;   extruderUseWipe,0
;   extruderWipeDistance,5
;   primaryExtruder,0
;   layerHeight,0.2
;   topSolidLayers,3
;   bottomSolidLayers,3
;   perimeterOutlines,3
;   printPerimetersInsideOut,1
;   startPointOption,1
;   startPointOriginX,0
;   startPointOriginY,0
;   sequentialIslands,0
;   spiralVaseMode,0
;   firstLayerHeightPercentage,100
;   firstLayerWidthPercentage,100
;   firstLayerUnderspeed,0.5
;   useRaft,0
;   raftExtruder,0
;   raftTopLayers,3
;   raftBaseLayers,2
;   raftOffset,3
;   raftSeparationDistance,0.14
;   raftTopInfill,100
;   aboveRaftSpeedMultiplier,0.28
;   useSkirt,1
;   skirtExtruder,0
;   skirtLayers,1
;   skirtOutlines,2
;   skirtOffset,2
;   usePrimePillar,0
;   primePillarExtruder,999
;   primePillarWidth,10
;   primePillarLocation,4
;   primePillarSpeedMultiplier,1
;   useOozeShield,0
;   oozeShieldExtruder,999
;   oozeShieldOffset,2
;   oozeShieldOutlines,1
;   oozeShieldSidewallShape,1
;   oozeShieldSidewallAngle,30
;   oozeShieldSpeedMultiplier,1
;   infillExtruder,0
;   internalInfillPattern,Rectilinear
;   externalInfillPattern,Rectilinear
;   infillPercentage,100
;   outlineOverlapPercentage,20
;   infillExtrusionWidthPercentage,100
;   minInfillLength,3
;   infillLayerInterval,1
;   internalInfillAngles,45,-45
;   overlapInternalInfillAngles,0
;   externalInfillAngles,45,-45
;   generateSupport,0
;   supportExtruder,0
;   supportInfillPercentage,45
;   supportExtraInflation,0
;   supportBaseLayers,0
;   denseSupportExtruder,0
;   denseSupportLayers,0
;   denseSupportInfillPercentage,70
;   supportLayerInterval,1
;   supportHorizontalPartOffset,0.3
;   supportUpperSeparationLayers,1
;   supportLowerSeparationLayers,1
;   supportType,0
;   supportGridSpacing,1
;   maxOverhangAngle,30
;   supportAngles,0,90
;   temperatureName,Primary Extruder,Bed
;   temperatureNumber,0,1
;   temperatureSetpointCount,1,1
;   temperatureSetpointLayers,1,1
;   temperatureSetpointTemperatures,220,60
;   temperatureStabilizeAtStartup,1,1
;   temperatureHeatedBed,0,1
;   temperatureRelayBetweenLayers,0,0
;   temperatureRelayBetweenLoops,0,0
;   fanLayers,1,2
;   fanSpeeds,0,100
;   blipFanToFullPower,0
;   adjustSpeedForCooling,1
;   minSpeedLayerTime,15
;   minCoolingSpeedSlowdown,20
;   increaseFanForCooling,0
;   minFanLayerTime,45
;   maxCoolingFanSpeed,100
;   increaseFanForBridging,0
;   bridgingFanSpeed,100
;   use5D,1
;   relativeEdistances,0
;   allowEaxisZeroing,1
;   independentExtruderAxes,0
;   includeM10123,0
;   stickySupport,1
;   applyToolheadOffsets,0
;   gcodeXoffset,0
;   gcodeYoffset,0
;   gcodeZoffset,0
;   overrideMachineDefinition,1
;   machineTypeOverride,0
;   strokeXoverride,205
;   strokeYoverride,205
;   strokeZoverride,205
;   originOffsetXoverride,0
;   originOffsetYoverride,0
;   originOffsetZoverride,0
;   homeXdirOverride,-1
;   homeYdirOverride,-1
;   homeZdirOverride,-1
;   flipXoverride,1
;   flipYoverride,-1
;   flipZoverride,1
;   toolheadOffsets,0,0|0,0|0,0|0,0|0,0|0,0
;   overrideFirmwareConfiguration,0
;   firmwareTypeOverride,RepRap (Marlin/Repetier/Sprinter)
;   GPXconfigOverride,r2
;   baudRateOverride,115200
;   overridePrinterModels,0
;   printerModelsOverride
;   startingGcode,G28 ; home all axes
;   layerChangeGcode,
;   retractionGcode,
;   toolChangeGcode,
;   endingGcode,M104 S0 ; turn off extruder,M140 S0 ; turn off bed,G91 ; set relative mode,G0 Z10 F3000 ; move 10mm up,G90 ; set absolute mode,G1 X0 Y0 F3000 ; move X and Y home,M84 ; disable motors,G4 P60000 ; wait 2 minutes,M106 S0  ; turn off fan
;   exportFileFormat,gcode
;   celebration,0
;   celebrationSong,Random Song
;   postProcessing,
;   defaultSpeed,3600
;   outlineUnderspeed,0.5
;   solidInfillUnderspeed,0.8
;   supportUnderspeed,0.8
;   rapidXYspeed,4800
;   rapidZspeed,1000
;   minBridgingArea,50
;   bridgingExtraInflation,0
;   bridgingExtrusionMultiplier,1
;   bridgingSpeedMultiplier,1
;   useFixedBridgingAngle,0
;   fixedBridgingAngle,0
;   applyBridgingToPerimeters,0
;   filamentDiameters,1.75|1.75|1.75|1.75|1.75|1.75
;   filamentPricesPerKg,30|46|46|46|46|46
;   filamentDensities,1.25|1.25|1.25|1.25|1.25|1.25
;   useMinPrintHeight,0
;   minPrintHeight,0
;   useMaxPrintHeight,0
;   maxPrintHeight,0
;   useDiaphragm,0
;   diaphragmLayerInterval,20
;   robustSlicing,1
;   mergeAllIntoSolid,0
;   onlyRetractWhenCrossingOutline,1
;   retractBetweenLayers,1
;   useRetractionMinTravel,0
;   retractionMinTravel,3
;   retractWhileWiping,0
;   onlyWipeOutlines,1
;   avoidCrossingOutline,0
;   maxMovementDetourFactor,3
;   toolChangeRetractionDistance,12
;   toolChangeExtraRestartDistance,-0.5
;   toolChangeRetractionSpeed,600
;   externalThinWallType,0
;   internalThinWallType,2
;   thinWallAllowedOverlapPercentage,10
;   singleExtrusionMinLength,1
;   singleExtrusionMinPrintingWidthPercentage,50
;   singleExtrusionMaxPrintingWidthPercentage,200
;   singleExtrusionEndpointExtension,0.2
;   horizontalSizeCompensation,0
G90
M82
M106 S0
M140 S60
M190 S60
M104 S220 T0
M109 S220 T0
G28 ; home all axes
G92 E0
G1 E-5.0000 F3600
G1 Z0.350 F1000
; process Process1
; layer 1, Z = 0.200
T0
; tool H0.200 W0.400
; skirt
G1 X20.222 Y35.791 F4800
G1 Z0.200 F1000
G1 E0.0000 F1080
G92 E0
G1 X20.442 Y35.700 E0.0079 F1800
G1 X184.558 Y35.700 E5.4664
G1 X184.778 Y35.791 E5.4744
G1 X186.119 Y37.132 E5.5374
G1 X186.210 Y37.352 E5.5454
G1 X186.210 Y167.648 E9.8790
G1 X186.119 Y167.868 E9.8870
G1 X184.778 Y169.209 E9.9500
G1 X184.558 Y169.300 E9.9579
G1 X20.442 Y169.300 E15.4164
G1 X20.222 Y169.209 E15.4244
G1 X18.881 Y167.868 E15.4874
G1 X18.790 Y167.648 E15.4954
G1 X18.790 Y37.352 E19.8290
G1 X18.881 Y37.132 E19.8370
G1 X20.080 Y35.933 E19.8934
G1 X20.222 Y35.791 F1800
G1 X20.448 Y36.130 F4800
G92 E0
G1 X20.522 Y36.100 E0.0026 F1800
G1 X184.478 Y36.100 E5.4559
G1 X184.552 Y36.130 E5.4585
G1 X185.780 Y37.358 E5.5163
G1 X185.810 Y37.432 E5.5189
G1 X185.810 Y167.568 E9.8473
G1 X185.780 Y167.642 E9.8499
G1 X184.552 Y168.870 E9.9077
G1 X184.478 Y168.900 E9.9103
G1 X20.522 Y168.900 E15.3635
G1 X20.448 Y168.870 E15.3662
G1 X19.220 Y167.642 E15.4239
G1 X19.190 Y167.568 E15.4266
G1 X19.190 Y37.432 E19.7549
G1 X19.220 Y37.358 E19.7576
G1 X20.307 Y36.272 E19.8087
G1 X20.448 Y36.130 F1800
G92 E0
G1 E-5.0000 F3600
G1 Z0.350 F1000
; inner perimeter
G1 X25.054 Y162.571 F4800
G1 Z0.200 F1000
G1 E0.0000 F3600
G92 E0
G1 X24.965 Y162.931 E0.0123 F1350
G1 X24.928 Y163.150 E0.0197
G1 X24.889 Y163.682 E0.0374
G1 X24.908 Y164.089 E0.0510
G1 X25.002 Y164.644 E0.0697
G1 X25.183 Y165.199 E0.0891
G1 X25.380 Y165.514 E0.1015
G1 X25.278 Y165.700 E0.1086
G1 X22.390 Y165.700 E0.2046
G1 X22.390 Y55.129 E3.8822
G1 X22.578 Y55.026 E3.8894
G1 X22.682 Y55.094 E3.8935
G1 X23.107 Y55.261 E3.9087
G1 X23.479 Y55.337 E3.9213
G1 X23.936 Y55.348 E3.9365
G1 X24.395 Y55.268 E3.9520
G1 X24.833 Y55.096 E3.9677
G1 X25.226 Y54.843 E3.9832
G1 X25.562 Y54.517 E3.9988
G1 X25.826 Y54.130 E4.0144
G1 X26.009 Y53.698 E4.0300
G1 X26.103 Y53.235 E4.0457
G1 X26.103 Y52.769 E4.0612
G1 X26.011 Y52.309 E4.0768
G1 X25.829 Y51.875 E4.0924
G1 X25.573 Y51.499 E4.1075
G1 X25.309 Y51.227 E4.1202
G1 X24.940 Y50.962 E4.1352
G1 X24.514 Y50.769 E4.1508
G1 X24.056 Y50.664 E4.1664
G1 X23.584 Y50.652 E4.1821
G1 X23.122 Y50.733 E4.1977
G1 X22.689 Y50.903 E4.2132
G1 X22.578 Y50.974 E4.2176
G1 X22.390 Y50.872 E4.2247
G1 X22.390 Y39.300 E4.6096
G1 X25.450 Y39.300 E4.7114
G1 X25.121 Y39.956 E4.7358
G1 X24.963 Y40.532 E4.7556
G1 X24.893 Y41.102 E4.7748
G1 X24.906 Y41.677 E4.7939
G1 X24.999 Y42.225 E4.8124
G1 X25.057 Y42.435 E4.8196
G1 X25.151 Y42.714 E4.8294
G1 X25.279 Y42.971 E4.8390
G1 X25.448 Y43.213 E4.8488
G1 X25.651 Y43.428 E4.8586
G1 X25.884 Y43.611 E4.8685
G1 X26.142 Y43.759 E4.8784
G1 X26.416 Y43.865 E4.8881
G1 X26.704 Y43.930 E4.8980
G1 X26.963 Y43.950 E4.9066
G1 X30.811 Y43.949 E5.0346
G1 X31.235 Y43.876 E5.0489
G1 X31.536 Y43.760 E5.0596
G1 X31.813 Y43.602 E5.0702
G1 X32.169 Y43.295 E5.0859
G1 X32.451 Y42.892 E5.1022
G1 X32.626 Y42.436 E5.1185
G1 X32.750 Y41.874 E5.1376
G1 X32.792 Y41.306 E5.1566
G1 X32.751 Y40.733 E5.1757
G1 X32.631 Y40.189 E5.1942
G1 X32.530 Y39.888 E5.2048
G1 X32.401 Y39.629 E5.2144
G1 X32.306 Y39.493 E5.2199
G1 X32.407 Y39.300 E5.2271
G1 X172.592 Y39.300 E9.8897
G1 X172.690 Y39.502 E9.8972
G1 X172.605 Y39.612 E9.9018
G1 X172.438 Y39.969 E9.9149
G1 X172.283 Y40.532 E9.9343
G1 X172.213 Y41.101 E9.9534
G1 X172.225 Y41.677 E9.9725
G1 X172.320 Y42.227 E9.9911
G1 X172.382 Y42.452 E9.9989
G1 X172.537 Y42.864 E10.0135
G1 X172.708 Y43.136 E10.0242
G1 X172.900 Y43.361 E10.0340
G1 X173.123 Y43.554 E10.0439
G1 X173.371 Y43.713 E10.0536
G1 X173.654 Y43.839 E10.0639
G1 X174.012 Y43.929 E10.0762
G1 X174.283 Y43.950 E10.0853
G1 X178.131 Y43.949 E10.2132
G1 X178.579 Y43.872 E10.2284
G1 X179.009 Y43.682 E10.2440
G1 X179.271 Y43.495 E10.2547
G1 X179.501 Y43.277 E10.2653
G1 X179.771 Y42.892 E10.2809
G1 X179.945 Y42.435 E10.2972
G1 X180.070 Y41.875 E10.3162
G1 X180.113 Y41.306 E10.3352
G1 X180.071 Y40.732 E10.3544
G1 X179.947 Y40.172 E10.3734
G1 X179.782 Y39.734 E10.3890
G1 X179.625 Y39.486 E10.3987
G1 X179.728 Y39.300 E10.4058
G1 X182.610 Y39.300 E10.5017
G1 X182.610 Y50.872 E10.8865
G1 X182.422 Y50.974 E10.8937
G1 X182.315 Y50.905 E10.8979
G1 X181.881 Y50.734 E10.9134
G1 X181.432 Y50.654 E10.9286
G1 X181.052 Y50.654 E10.9412
G1 X180.602 Y50.733 E10.9564
G1 X180.169 Y50.903 E10.9719
G1 X179.785 Y51.149 E10.9871
G1 X179.508 Y51.406 E10.9996
G1 X179.231 Y51.771 E11.0149
G1 X179.028 Y52.191 E11.0304
G1 X178.912 Y52.647 E11.0460
G1 X178.890 Y53.080 E11.0605
G1 X178.904 Y53.268 E11.0667
G1 X178.988 Y53.689 E11.0810
G1 X179.169 Y54.123 E11.0966
G1 X179.434 Y54.511 E11.1123
G1 X179.768 Y54.839 E11.1278
G1 X180.162 Y55.094 E11.1434
G1 X180.587 Y55.261 E11.1586
G1 X180.959 Y55.337 E11.1713
G1 X181.416 Y55.348 E11.1865
G1 X181.875 Y55.268 E11.2020
G1 X182.314 Y55.096 E11.2176
G1 X182.422 Y55.026 E11.2219
G1 X182.610 Y55.128 E11.2290
G1 X182.610 Y165.700 E14.9067
G1 X179.728 Y165.700 E15.0025
G1 X179.625 Y165.514 E15.0096
G1 X179.767 Y165.290 E15.0184
G1 X179.881 Y165.030 E15.0278
G1 X179.995 Y164.649 E15.0411
G1 X180.071 Y164.262 E15.0542
G1 X180.112 Y163.719 E15.0723
G1 X180.092 Y163.311 E15.0859
G1 X179.998 Y162.756 E15.1046
G1 X179.818 Y162.201 E15.1240
G1 X179.562 Y161.794 E15.1400
G1 X179.267 Y161.495 E15.1540
G1 X178.862 Y161.239 E15.1699
G1 X178.419 Y161.089 E15.1855
G1 X178.110 Y161.051 E15.1958
G1 X174.212 Y161.051 E15.3255
G1 X173.931 Y161.085 E15.3349
G1 X173.633 Y161.169 E15.3452
G1 X173.302 Y161.325 E15.3573
G1 X173.040 Y161.510 E15.3680
G1 X172.780 Y161.771 E15.3803
G1 X172.595 Y162.034 E15.3910
G1 X172.437 Y162.370 E15.4033
G1 X172.287 Y162.920 E15.4223
G1 X172.248 Y163.150 E15.4300
G1 X172.208 Y163.681 E15.4478
G1 X172.228 Y164.089 E15.4614
G1 X172.322 Y164.644 E15.4801
G1 X172.502 Y165.199 E15.4995
G1 X172.700 Y165.514 E15.5118
G1 X172.597 Y165.700 E15.5189
G1 X32.220 Y165.700 E20.1879
G1 X32.524 Y165.129 E20.2094
G1 X32.630 Y164.817 E20.2203
G1 X32.750 Y164.274 E20.2389
G1 X32.791 Y163.718 E20.2574
G1 X32.772 Y163.311 E20.2709
G1 X32.679 Y162.763 E20.2894
G1 X32.531 Y162.286 E20.3060
G1 X32.339 Y161.922 E20.3197
G1 X31.967 Y161.508 E20.3382
G1 X31.540 Y161.237 E20.3551
G1 X31.098 Y161.089 E20.3705
G1 X30.791 Y161.051 E20.3809
G1 X26.894 Y161.051 E20.5105
G1 X26.610 Y161.086 E20.5200
G1 X26.315 Y161.168 E20.5302
G1 X25.983 Y161.324 E20.5424
G1 X25.720 Y161.510 E20.5531
G1 X25.459 Y161.772 E20.5654
G1 X25.282 Y162.023 E20.5756
G1 X25.153 Y162.282 E20.5852
G1 X25.119 Y162.382 E20.5887
G1 X25.054 Y162.571 F1350
G1 X25.523 Y162.437 F4800
G92 E0
G1 X25.438 Y162.684 E0.0087 F1350
G1 X25.357 Y163.013 E0.0199
G1 X25.325 Y163.199 E0.0262
G1 X25.289 Y163.687 E0.0425
G1 X25.306 Y164.046 E0.0544
G1 X25.392 Y164.548 E0.0714
G1 X25.548 Y165.028 E0.0882
G1 X25.757 Y165.362 E0.1013
G1 X26.041 Y165.635 E0.1144
G1 X26.387 Y165.832 E0.1276
G1 X26.316 Y166.100 E0.1369
G1 X21.990 Y166.100 E0.2807
G1 X21.990 Y54.295 E3.9994
G1 X22.210 Y54.203 E4.0073
G1 X22.540 Y54.525 E4.0227
G1 X22.866 Y54.736 E4.0356
G1 X23.221 Y54.876 E4.0483
G1 X23.524 Y54.938 E4.0586
G1 X23.906 Y54.947 E4.0713
G1 X24.286 Y54.881 E4.0841
G1 X24.650 Y54.738 E4.0971
G1 X24.975 Y54.529 E4.1100
G1 X25.254 Y54.258 E4.1229
G1 X25.474 Y53.937 E4.1358
G1 X25.625 Y53.579 E4.1488
G1 X25.703 Y53.195 E4.1618
G1 X25.703 Y52.808 E4.1747
G1 X25.627 Y52.427 E4.1876
G1 X25.475 Y52.066 E4.2006
G1 X25.262 Y51.753 E4.2132
G1 X25.046 Y51.532 E4.2235
G1 X24.739 Y51.310 E4.2361
G1 X24.385 Y51.150 E4.2490
G1 X24.006 Y51.063 E4.2620
G1 X23.614 Y51.052 E4.2750
G1 X23.231 Y51.120 E4.2879
G1 X22.872 Y51.261 E4.3008
G1 X22.545 Y51.471 E4.3137
G1 X22.210 Y51.797 E4.3292
G1 X21.990 Y51.704 E4.3372
G1 X21.990 Y38.900 E4.7630
G1 X26.285 Y38.900 E4.9059
G1 X26.364 Y39.151 E4.9146
G1 X25.923 Y39.462 E4.9326
G1 X25.666 Y39.761 E4.9457
G1 X25.497 Y40.100 E4.9583
G1 X25.357 Y40.609 E4.9759
G1 X25.293 Y41.122 E4.9931
G1 X25.305 Y41.639 E5.0102
G1 X25.390 Y42.139 E5.0271
G1 X25.439 Y42.318 E5.0333
G1 X25.521 Y42.560 E5.0418
G1 X25.624 Y42.767 E5.0495
G1 X25.759 Y42.960 E5.0573
G1 X25.921 Y43.132 E5.0652
G1 X26.108 Y43.279 E5.0731
G1 X26.315 Y43.397 E5.0810
G1 X26.533 Y43.481 E5.0888
G1 X26.764 Y43.534 E5.0967
G1 X26.978 Y43.550 E5.1038
G1 X30.777 Y43.549 E5.2302
G1 X31.128 Y43.488 E5.2420
G1 X31.364 Y43.397 E5.2504
G1 X31.582 Y43.274 E5.2587
G1 X31.870 Y43.025 E5.2714
G1 X32.095 Y42.703 E5.2845
G1 X32.242 Y42.320 E5.2981
G1 X32.354 Y41.816 E5.3153
G1 X32.391 Y41.305 E5.3323
G1 X32.354 Y40.790 E5.3495
G1 X32.246 Y40.297 E5.3663
G1 X32.159 Y40.042 E5.3752
G1 X32.056 Y39.834 E5.3830
G1 X31.921 Y39.640 E5.3908
G1 X31.758 Y39.468 E5.3987
G1 X31.571 Y39.320 E5.4066
G1 X31.303 Y39.168 E5.4169
G1 X31.374 Y38.900 E5.4261
G1 X173.630 Y38.900 E10.1576
G1 X173.696 Y39.177 E10.1670
G1 X173.484 Y39.283 E10.1749
G1 X173.185 Y39.518 E10.1876
G1 X172.948 Y39.822 E10.2004
G1 X172.814 Y40.108 E10.2109
G1 X172.677 Y40.609 E10.2282
G1 X172.613 Y41.122 E10.2453
G1 X172.625 Y41.639 E10.2625
G1 X172.711 Y42.140 E10.2794
G1 X172.763 Y42.328 E10.2859
G1 X172.897 Y42.685 E10.2986
G1 X173.031 Y42.898 E10.3070
G1 X173.185 Y43.078 E10.3149
G1 X173.364 Y43.233 E10.3227
G1 X173.562 Y43.360 E10.3306
G1 X173.785 Y43.460 E10.3387
G1 X174.076 Y43.533 E10.3487
G1 X174.298 Y43.550 E10.3561
G1 X178.097 Y43.549 E10.4824
G1 X178.462 Y43.486 E10.4948
G1 X178.810 Y43.332 E10.5074
G1 X179.016 Y43.186 E10.5158
G1 X179.197 Y43.014 E10.5241
G1 X179.415 Y42.703 E10.5367
G1 X179.561 Y42.320 E10.5504
G1 X179.673 Y41.816 E10.5676
G1 X179.711 Y41.305 E10.5846
G1 X179.674 Y40.790 E10.6018
G1 X179.563 Y40.286 E10.6189
G1 X179.422 Y39.913 E10.6322
G1 X179.288 Y39.701 E10.6405
G1 X179.135 Y39.522 E10.6484
G1 X178.955 Y39.366 E10.6563
G1 X178.758 Y39.240 E10.6641
G1 X178.635 Y39.186 E10.6686
G1 X178.695 Y38.900 E10.6783
G1 X183.010 Y38.900 E10.8218
G1 X183.010 Y51.705 E11.2477
G1 X182.789 Y51.798 E11.2556
G1 X182.460 Y51.475 E11.2710
G1 X182.131 Y51.262 E11.2840
G1 X181.772 Y51.121 E11.2968
G1 X181.397 Y51.054 E11.3095
G1 X181.087 Y51.054 E11.3198
G1 X180.711 Y51.120 E11.3325
G1 X180.352 Y51.261 E11.3454
G1 X180.031 Y51.467 E11.3580
G1 X179.805 Y51.676 E11.3683
G1 X179.574 Y51.981 E11.3810
G1 X179.405 Y52.329 E11.3939
G1 X179.309 Y52.707 E11.4068
G1 X179.291 Y53.075 E11.4191
G1 X179.301 Y53.213 E11.4237
G1 X179.373 Y53.572 E11.4359
G1 X179.523 Y53.931 E11.4488
G1 X179.742 Y54.253 E11.4618
