; G-Code generated by Simplify3D(R) Version 4.0.0
; Dec 10, 2022 at 11:28:03 PM
; Settings Summary
;   processName,Process1
;   applyToModels,Mainboard-Fusion
;   profileName,PLA_Standard (modified)
;   profileVersion,2022-03-05 15:44:09
;   baseProfile,
;   printMaterial,
;   printQuality,
;   printExtruders,
;   extruderName,Primary Extruder
;   extruderToolheadNumber,0
;   extruderDiameter,0.4
;   extruderAutoWidth,0
;   extruderWidth,0.35
;   extrusionMultiplier,1
;   extruderUseRetract,1
;   extruderRetractionDistance,5
;   extruderExtraRestartDistance,0
;   extruderRetractionZLift,0.15
;   extruderRetractionSpeed,3600
;   extruderUseCoasting,1
;   extruderCoastingDistance,0.2
;   extruderUseWipe,0
;   extruderWipeDistance,5
;   primaryExtruder,0
;   layerHeight,0.2
;   topSolidLayers,3
;   bottomSolidLayers,3
;   perimeterOutlines,3
;   printPerimetersInsideOut,1
;   startPointOption,1
;   startPointOriginX,0
;   startPointOriginY,0
;   sequentialIslands,0
;   spiralVaseMode,0
;   firstLayerHeightPercentage,100
;   firstLayerWidthPercentage,100
;   firstLayerUnderspeed,0.5
;   useRaft,0
;   raftExtruder,0
;   raftTopLayers,3
;   raftBaseLayers,2
;   raftOffset,3
;   raftSeparationDistance,0.14
;   raftTopInfill,100
;   aboveRaftSpeedMultiplier,0.28
;   useSkirt,1
;   skirtExtruder,0
;   skirtLayers,1
;   skirtOutlines,2
;   skirtOffset,2
;   usePrimePillar,0
;   primePillarExtruder,999
;   primePillarWidth,10
;   primePillarLocation,4
;   primePillarSpeedMultiplier,1
;   useOozeShield,0
;   oozeShieldExtruder,999
;   oozeShieldOffset,2
;   oozeShieldOutlines,1
;   oozeShieldSidewallShape,1
;   oozeShieldSidewallAngle,30
;   oozeShieldSpeedMultiplier,1
;   infillExtruder,0
;   internalInfillPattern,Rectilinear
;   externalInfillPattern,Rectilinear
;   infillPercentage,100
;   outlineOverlapPercentage,20
;   infillExtrusionWidthPercentage,100
;   minInfillLength,3
;   infillLayerInterval,1
;   internalInfillAngles,45,-45
;   overlapInternalInfillAngles,0
;   externalInfillAngles,45,-45
;   generateSupport,0
;   supportExtruder,0
;   supportInfillPercentage,45
;   supportExtraInflation,0
;   supportBaseLayers,0
;   denseSupportExtruder,0
;   denseSupportLayers,0
;   denseSupportInfillPercentage,70
;   supportLayerInterval,1
;   supportHorizontalPartOffset,0.3
;   supportUpperSeparationLayers,1
;   supportLowerSeparationLayers,1
;   supportType,0
;   supportGridSpacing,1
;   maxOverhangAngle,30
;   supportAngles,0,90
;   temperatureName,Primary Extruder,Bed
;   temperatureNumber,0,1
;   temperatureSetpointCount,1,1
;   temperatureSetpointLayers,1,1
;   temperatureSetpointTemperatures,220,60
;   temperatureStabilizeAtStartup,1,1
;   temperatureHeatedBed,0,1
;   temperatureRelayBetweenLayers,0,0
;   temperatureRelayBetweenLoops,0,0
;   fanLayers,1,2
;   fanSpeeds,0,100
;   blipFanToFullPower,0
;   adjustSpeedForCooling,1
;   minSpeedLayerTime,15
;   minCoolingSpeedSlowdown,20
;   increaseFanForCooling,0
;   minFanLayerTime,45
;   maxCoolingFanSpeed,100
;   increaseFanForBridging,0
;   bridgingFanSpeed,100
;   use5D,1
;   relativeEdistances,0
;   allowEaxisZeroing,1
;   independentExtruderAxes,0
;   includeM10123,0
;   stickySupport,1
;   applyToolheadOffsets,0
;   gcodeXoffset,0
;   gcodeYoffset,0
;   gcodeZoffset,0
;   overrideMachineDefinition,1
;   machineTypeOverride,0
;   strokeXoverride,205
;   strokeYoverride,205
;   strokeZoverride,205
;   originOffsetXoverride,0
;   originOffsetYoverride,0
;   originOffsetZoverride,0
;   homeXdirOverride,-1
;   homeYdirOverride,-1
;   homeZdirOverride,-1
;   flipXoverride,1
;   flipYoverride,-1
;   flipZoverride,1
;   toolheadOffsets,0,0|0,0|0,0|0,0|0,0|0,0
;   overrideFirmwareConfiguration,0
;   firmwareTypeOverride,RepRap (Marlin/Repetier/Sprinter)
;   GPXconfigOverride,r2
;   baudRateOverride,115200
;   overridePrinterModels,0
;   printerModelsOverride
;   startingGcode,G28 ; home all axes
;   layerChangeGcode,
;   retractionGcode,
;   toolChangeGcode,
;   endingGcode,M104 S0 ; turn off extruder,M140 S0 ; turn off bed,G91 ; set relative mode,G0 Z10 F3000 ; move 10mm up,G90 ; set absolute mode,G1 X0 Y0 F3000 ; move X and Y home,M84 ; disable motors,G4 P60000 ; wait 2 minutes,M106 S0  ; turn off fan
;   exportFileFormat,gcode
;   celebration,0
;   celebrationSong,Random Song
;   postProcessing,
;   defaultSpeed,3600
;   outlineUnderspeed,0.5
;   solidInfillUnderspeed,0.8
;   supportUnderspeed,0.8
;   rapidXYspeed,4800
;   rapidZspeed,1000
;   minBridgingArea,50
;   bridgingExtraInflation,0
;   bridgingExtrusionMultiplier,1
;   bridgingSpeedMultiplier,1
;   useFixedBridgingAngle,0
;   fixedBridgingAngle,0
;   applyBridgingToPerimeters,0
;   filamentDiameters,1.75|1.75|1.75|1.75|1.75|1.75
;   filamentPricesPerKg,30|46|46|46|46|46
;   filamentDensities,1.25|1.25|1.25|1.25|1.25|1.25
;   useMinPrintHeight,0
;   minPrintHeight,0
;   useMaxPrintHeight,0
;   maxPrintHeight,0
;   useDiaphragm,0
;   diaphragmLayerInterval,20
;   robustSlicing,1
;   mergeAllIntoSolid,0
;   onlyRetractWhenCrossingOutline,1
;   retractBetweenLayers,1
;   useRetractionMinTravel,0
;   retractionMinTravel,3
;   retractWhileWiping,0
;   onlyWipeOutlines,1
;   avoidCrossingOutline,0
;   maxMovementDetourFactor,3
;   toolChangeRetractionDistance,12
;   toolChangeExtraRestartDistance,-0.5
;   toolChangeRetractionSpeed,600
;   externalThinWallType,0
;   internalThinWallType,2
;   thinWallAllowedOverlapPercentage,10
;   singleExtrusionMinLength,1
;   singleExtrusionMinPrintingWidthPercentage,50
;   singleExtrusionMaxPrintingWidthPercentage,200
;   singleExtrusionEndpointExtension,0.2
;   horizontalSizeCompensation,0
G90
M82
M106 S0
M140 S60
M190 S60
M104 S220 T0
M109 S220 T0
G28 ; home all axes
G92 E0
G1 E-5.0000 F3600
G1 Z0.350 F1000
; process Process1
; layer 1, Z = 0.200
T0
; tool H0.200 W0.350
; skirt
G1 X10.297 Y35.775 F4800
G1 Z0.200 F1000
G1 E0.0000 F1080
G92 E0
G1 X194.703 Y35.775 E5.3667 F1800
G1 X194.896 Y35.855 E5.3728
G1 X196.215 Y37.174 E5.4271
G1 X196.295 Y37.367 E5.4331
G1 X196.295 Y167.633 E9.2242
G1 X196.215 Y167.826 E9.2303
G1 X194.896 Y169.145 E9.2846
G1 X194.703 Y169.225 E9.2907
G1 X10.297 Y169.225 E14.6574
G1 X10.104 Y169.145 E14.6634
G1 X8.785 Y167.826 E14.7177
G1 X8.705 Y167.633 E14.7238
G1 X8.705 Y37.367 E18.5149
G1 X8.785 Y37.174 E18.5210
G1 X10.104 Y35.855 E18.5753
G1 X10.112 Y35.852 E18.5755
G1 X10.297 Y35.775 F1800
G1 X10.367 Y36.125 F4800
G92 E0
G1 X194.633 Y36.125 E5.3626 F1800
G1 X194.698 Y36.152 E5.3647
G1 X195.918 Y37.372 E5.4149
G1 X195.945 Y37.437 E5.4169
G1 X195.945 Y167.563 E9.2040
G1 X195.918 Y167.628 E9.2060
G1 X194.698 Y168.848 E9.2562
G1 X194.633 Y168.875 E9.2583
G1 X10.367 Y168.875 E14.6209
G1 X10.302 Y168.848 E14.6229
G1 X9.082 Y167.628 E14.6732
G1 X9.055 Y167.563 E14.6752
G1 X9.055 Y37.437 E18.4622
G1 X9.082 Y37.372 E18.4642
G1 X10.210 Y36.244 E18.5107
G1 X10.302 Y36.152 F1800
G1 X10.367 Y36.125 F1800
G92 E0
G1 E-5.0000 F3600
G1 Z0.350 F1000
; inner perimeter
G1 X182.512 Y164.076 F4800
G1 Z0.200 F1000
G1 E0.0000 F3600
G92 E0
G1 X182.604 Y164.614 E0.0159 F1350
G1 X182.776 Y165.146 E0.0322
G1 X183.016 Y165.528 E0.0453
G1 X183.119 Y165.631 E0.0495
G1 X183.038 Y165.825 E0.0556
G1 X21.960 Y165.825 E4.7434
G1 X21.875 Y165.645 E4.7492
G1 X22.082 Y165.392 E4.7587
G1 X22.248 Y165.079 E4.7690
G1 X22.349 Y164.784 E4.7781
G1 X22.466 Y164.256 E4.7939
G1 X22.506 Y163.716 E4.8096
G1 X22.488 Y163.325 E4.8210
G1 X22.397 Y162.792 E4.8368
G1 X22.255 Y162.334 E4.8507
G1 X22.076 Y161.994 E4.8619
G1 X21.726 Y161.605 E4.8771
G1 X21.326 Y161.351 E4.8909
G1 X20.910 Y161.212 E4.9037
G1 X20.623 Y161.176 E4.9121
G1 X16.741 Y161.176 E5.0251
G1 X16.474 Y161.208 E5.0329
G1 X16.199 Y161.286 E5.0412
G1 X15.886 Y161.433 E5.0513
G1 X15.641 Y161.605 E5.0600
G1 X15.395 Y161.853 E5.0701
G1 X15.230 Y162.088 E5.0785
G1 X15.108 Y162.331 E5.0864
G1 X15.014 Y162.607 E5.0949
G1 X14.928 Y162.957 E5.1054
G1 X14.892 Y163.166 E5.1115
G1 X14.854 Y163.684 E5.1267
G1 X14.872 Y164.075 E5.1381
G1 X14.964 Y164.614 E5.1540
G1 X15.137 Y165.146 E5.1703
G1 X15.382 Y165.537 E5.1837
G1 X15.476 Y165.628 E5.1875
G1 X15.397 Y165.825 E5.1937
G1 X12.105 Y165.825 E5.2895
G1 X12.105 Y54.871 E8.5186
G1 X12.270 Y54.781 E8.5240
G1 X12.580 Y54.982 E8.5348
G1 X12.983 Y55.141 E8.5474
G1 X13.333 Y55.212 E8.5578
G1 X13.766 Y55.223 E8.5704
G1 X14.201 Y55.147 E8.5832
G1 X14.616 Y54.984 E8.5962
G1 X14.987 Y54.745 E8.6091
G1 X15.305 Y54.436 E8.6220
G1 X15.556 Y54.069 E8.6349
G1 X15.729 Y53.660 E8.6478
G1 X15.818 Y53.223 E8.6608
G1 X15.819 Y52.781 E8.6737
G1 X15.731 Y52.346 E8.6866
G1 X15.558 Y51.935 E8.6996
G1 X15.316 Y51.578 E8.7121
G1 X15.067 Y51.322 E8.7225
G1 X14.717 Y51.071 E8.7350
G1 X14.313 Y50.888 E8.7479
G1 X13.881 Y50.788 E8.7609
G1 X13.434 Y50.777 E8.7739
G1 X12.996 Y50.854 E8.7868
G1 X12.586 Y51.015 E8.7996
G1 X12.269 Y51.219 E8.8106
G1 X12.105 Y51.129 E8.8160
G1 X12.105 Y39.175 E9.1639
G1 X15.405 Y39.175 E9.2600
G1 X15.490 Y39.359 E9.2659
G1 X15.276 Y39.607 E9.2754
G1 X15.079 Y40.001 E9.2882
G1 X14.926 Y40.556 E9.3050
G1 X14.858 Y41.108 E9.3212
G1 X14.871 Y41.665 E9.3374
G1 X14.961 Y42.198 E9.3531
G1 X15.016 Y42.398 E9.3591
G1 X15.107 Y42.666 E9.3674
G1 X15.227 Y42.907 E9.3752
G1 X15.385 Y43.134 E9.3833
G1 X15.575 Y43.336 E9.3913
G1 X15.794 Y43.507 E9.3994
G1 X16.036 Y43.646 E9.4075
G1 X16.293 Y43.745 E9.4155
G1 X16.563 Y43.806 E9.4236
G1 X16.807 Y43.825 E9.4307
G1 X20.641 Y43.824 E9.5423
G1 X21.042 Y43.755 E9.5541
G1 X21.323 Y43.646 E9.5629
G1 X21.581 Y43.499 E9.5716
G1 X21.915 Y43.210 E9.5844
G1 X22.179 Y42.833 E9.5978
G1 X22.346 Y42.400 E9.6113
G1 X22.466 Y41.856 E9.6276
G1 X22.507 Y41.306 E9.6436
G1 X22.467 Y40.751 E9.6598
G1 X22.351 Y40.223 E9.6755
G1 X22.254 Y39.936 E9.6843
G1 X22.133 Y39.693 E9.6922
G1 X21.975 Y39.466 E9.7003
G1 X21.880 Y39.365 E9.7043
G1 X21.962 Y39.175 E9.7103
G1 X183.040 Y39.175 E14.3981
G1 X183.126 Y39.352 E14.4038
G1 X182.872 Y39.677 E14.4159
G1 X182.715 Y40.012 E14.4266
G1 X182.566 Y40.556 E14.4430
G1 X182.498 Y41.108 E14.4592
G1 X182.510 Y41.665 E14.4754
G1 X182.602 Y42.199 E14.4912
G1 X182.661 Y42.414 E14.4977
G1 X182.811 Y42.810 E14.5100
G1 X182.970 Y43.062 E14.5187
G1 X183.158 Y43.282 E14.5271
G1 X183.426 Y43.503 E14.5372
G1 X183.674 Y43.645 E14.5455
G1 X183.933 Y43.745 E14.5536
G1 X184.203 Y43.806 E14.5617
G1 X184.447 Y43.825 E14.5688
G1 X188.280 Y43.824 E14.6804
G1 X188.703 Y43.751 E14.6928
G1 X189.109 Y43.571 E14.7058
G1 X189.350 Y43.400 E14.7144
G1 X189.566 Y43.195 E14.7230
G1 X189.820 Y42.833 E14.7359
G1 X189.985 Y42.399 E14.7494
G1 X190.106 Y41.856 E14.7656
G1 X190.147 Y41.306 E14.7817
G1 X190.107 Y40.750 E14.7979
G1 X189.987 Y40.208 E14.8140
G1 X189.829 Y39.790 E14.8271
G1 X189.670 Y39.538 E14.8357
G1 X189.517 Y39.358 E14.8426
G1 X189.601 Y39.175 E14.8485
G1 X192.895 Y39.175 E14.9443
G1 X192.895 Y51.129 E15.2922
G1 X192.731 Y51.219 E15.2977
G1 X192.418 Y51.016 E15.3085
G1 X192.007 Y50.855 E15.3213
G1 X191.581 Y50.779 E15.3339
G1 X191.223 Y50.779 E15.3444
G1 X190.796 Y50.854 E15.3570
G1 X190.386 Y51.015 E15.3698
G1 X190.022 Y51.249 E15.3824
G1 X189.761 Y51.490 E15.3927
G1 X189.498 Y51.837 E15.4054
G1 X189.306 Y52.234 E15.4183
G1 X189.196 Y52.666 E15.4312
G1 X189.175 Y53.078 E15.4432
G1 X189.188 Y53.250 E15.4483
G1 X189.268 Y53.653 E15.4602
G1 X189.440 Y54.063 E15.4731
G1 X189.690 Y54.430 E15.4861
G1 X190.007 Y54.741 E15.4990
G1 X190.380 Y54.982 E15.5119
G1 X190.782 Y55.141 E15.5245
G1 X191.133 Y55.212 E15.5349
G1 X191.566 Y55.223 E15.5475
G1 X192.001 Y55.147 E15.5604
G1 X192.416 Y54.984 E15.5734
G1 X192.731 Y54.782 E15.5842
G1 X192.895 Y54.871 E15.5897
G1 X192.895 Y165.825 E18.8187
G1 X189.602 Y165.825 E18.9145
G1 X189.522 Y165.631 E18.9207
G1 X189.604 Y165.548 E18.9241
G1 X189.777 Y165.303 E18.9328
G1 X189.925 Y164.988 E18.9429
G1 X190.075 Y164.439 E18.9595
G1 X190.142 Y163.891 E18.9755
G1 X190.129 Y163.330 E18.9919
G1 X190.038 Y162.796 E19.0076
G1 X189.926 Y162.422 E19.0190
G1 X189.819 Y162.174 E19.0269
G1 X189.659 Y161.920 E19.0356
G1 X189.357 Y161.599 E19.0484
G1 X188.968 Y161.352 E19.0618
G1 X188.551 Y161.212 E19.0746
G1 X188.263 Y161.176 E19.0831
G1 X184.380 Y161.176 E19.1961
G1 X184.116 Y161.208 E19.2038
G1 X183.839 Y161.286 E19.2122
G1 X183.526 Y161.433 E19.2223
G1 X183.281 Y161.606 E19.2310
G1 X183.036 Y161.852 E19.2411
G1 X182.863 Y162.097 E19.2498
G1 X182.715 Y162.413 E19.2600
G1 X182.570 Y162.947 E19.2761
G1 X182.533 Y163.165 E19.2825
G1 X182.494 Y163.683 E19.2977
G1 X182.503 Y163.876 E19.3033
G1 X182.512 Y164.076 F1350
G1 X191.906 Y54.808 F4800
G92 E0
G1 X192.256 Y54.671 E0.0109 F1350
G1 X192.569 Y54.470 E0.0218
G1 X192.836 Y54.209 E0.0326
G1 X193.023 Y53.937 E0.0422
G1 X193.245 Y54.005 E0.0490
G1 X193.245 Y166.175 E3.3134
G1 X188.214 Y166.175 E3.4598
G1 X188.196 Y165.879 E3.4685
G1 X188.455 Y165.848 E3.4761
G1 X188.678 Y165.785 E3.4828
G1 X188.938 Y165.663 E3.4911
G1 X189.133 Y165.526 E3.4981
G1 X189.335 Y165.322 E3.5065
G1 X189.473 Y165.127 E3.5134
G1 X189.595 Y164.866 E3.5218
G1 X189.730 Y164.371 E3.5367
G1 X189.791 Y163.874 E3.5513
G1 X189.780 Y163.363 E3.5662
G1 X189.696 Y162.876 E3.5806
G1 X189.597 Y162.542 E3.5907
G1 X189.509 Y162.338 E3.5972
G1 X189.381 Y162.136 E3.6041
G1 X189.132 Y161.871 E3.6147
G1 X188.816 Y161.670 E3.6256
G1 X188.473 Y161.555 E3.6361
G1 X188.241 Y161.526 E3.6429
G1 X184.401 Y161.526 E3.7547
G1 X184.185 Y161.552 E3.7610
G1 X183.962 Y161.615 E3.7678
G1 X183.702 Y161.737 E3.7761
G1 X183.507 Y161.874 E3.7830
G1 X183.305 Y162.078 E3.7914
G1 X183.167 Y162.273 E3.7984
G1 X183.045 Y162.534 E3.8067
G1 X182.912 Y163.022 E3.8215
G1 X182.880 Y163.208 E3.8270
G1 X182.844 Y163.688 E3.8410
G1 X182.861 Y164.038 E3.8512
G1 X182.945 Y164.530 E3.8657
G1 X183.096 Y164.996 E3.8800
G1 X183.292 Y165.309 E3.8907
G1 X183.513 Y165.532 E3.8998
G1 X183.824 Y165.730 E3.9105
G1 X184.167 Y165.845 E3.9211
G1 X184.444 Y165.879 E3.9292
G1 X184.425 Y166.175 E3.9378
G1 X20.564 Y166.175 E8.7066
G1 X20.543 Y165.883 E8.7151
G1 X20.891 Y165.832 E8.7254
G1 X21.171 Y165.730 E8.7341
G1 X21.425 Y165.579 E8.7426
G1 X21.604 Y165.423 E8.7495
G1 X21.789 Y165.197 E8.7581
G1 X21.926 Y164.940 E8.7665
G1 X22.012 Y164.689 E8.7743
G1 X22.119 Y164.205 E8.7887
G1 X22.155 Y163.712 E8.8031
G1 X22.139 Y163.362 E8.8133
G1 X22.056 Y162.873 E8.8277
G1 X21.930 Y162.469 E8.8400
G1 X21.786 Y162.196 E8.8490
G1 X21.498 Y161.874 E8.8616
G1 X21.174 Y161.669 E8.8727
G1 X20.832 Y161.555 E8.8832
G1 X20.601 Y161.526 E8.8900
G1 X16.763 Y161.526 E9.0017
G1 X16.543 Y161.553 E9.0081
G1 X16.322 Y161.615 E9.0148
G1 X16.063 Y161.737 E9.0232
G1 X15.867 Y161.874 E9.0301
G1 X15.664 Y162.078 E9.0385
G1 X15.531 Y162.268 E9.0452
G1 X15.432 Y162.466 E9.0517
G1 X15.350 Y162.705 E9.0590
G1 X15.271 Y163.028 E9.0687
G1 X15.240 Y163.208 E9.0740
G1 X15.205 Y163.688 E9.0880
G1 X15.221 Y164.038 E9.0982
G1 X15.305 Y164.530 E9.1128
G1 X15.456 Y164.996 E9.1270
G1 X15.655 Y165.314 E9.1379
G1 X15.927 Y165.575 E9.1489
G1 X16.253 Y165.760 E9.1598
G1 X16.761 Y165.903 E9.1752
G1 X16.723 Y166.175 E9.1832
G1 X11.755 Y166.175 E9.3277
G1 X11.755 Y54.005 E12.5922
G1 X11.977 Y53.936 E12.5990
G1 X12.160 Y54.204 E12.6084
G1 X12.427 Y54.466 E12.6193
G1 X12.741 Y54.669 E12.6302
G1 X13.082 Y54.804 E12.6409
G1 X13.373 Y54.863 E12.6495
G1 X13.740 Y54.872 E12.6602
G1 X14.106 Y54.808 E12.6710
G1 X14.456 Y54.671 E12.6819
G1 X14.768 Y54.470 E12.6928
G1 X15.036 Y54.209 E12.7036
G1 X15.247 Y53.901 E12.7145
G1 X15.393 Y53.556 E12.7254
G1 X15.468 Y53.187 E12.7363
G1 X15.468 Y52.816 E12.7472
G1 X15.395 Y52.449 E12.7580
G1 X15.249 Y52.102 E12.7690
G1 X15.044 Y51.801 E12.7796
G1 X14.837 Y51.589 E12.7882
G1 X14.541 Y51.375 E12.7988
G1 X14.201 Y51.221 E12.8097
G1 X13.836 Y51.137 E12.8206
G1 X13.460 Y51.128 E12.8316
G1 X13.092 Y51.193 E12.8424
G1 X12.746 Y51.328 E12.8532
G1 X12.432 Y51.530 E12.8641
G1 X12.164 Y51.791 E12.8750
G1 X11.977 Y52.064 E12.8846
G1 X11.755 Y51.995 E12.8914
G1 X11.755 Y38.825 E13.2747
G1 X16.772 Y38.825 E13.4207
G1 X16.797 Y39.113 E13.4291
G1 X16.459 Y39.171 E13.4391
G1 X16.121 Y39.302 E13.4496
G1 X15.814 Y39.518 E13.4605
G1 X15.569 Y39.803 E13.4715
G1 X15.407 Y40.127 E13.4820
G1 X15.270 Y40.624 E13.4970
