; G-Code generated by Simplify3D(R) Version 4.0.0
; Nov 27, 2022 at 6:44:28 PM
; Settings Summary
;   processName,Process1
;   applyToModels,SymPSU,SymPSU(2)
;   profileName,PLA_Standard (modified)
;   profileVersion,2022-03-05 15:44:09
;   baseProfile,
;   printMaterial,
;   printQuality,
;   printExtruders,
;   extruderName,Primary Extruder
;   extruderToolheadNumber,0
;   extruderDiameter,0.4
;   extruderAutoWidth,0
;   extruderWidth,0.4
;   extrusionMultiplier,1
;   extruderUseRetract,1
;   extruderRetractionDistance,5
;   extruderExtraRestartDistance,0
;   extruderRetractionZLift,0.15
;   extruderRetractionSpeed,3600
;   extruderUseCoasting,1
;   extruderCoastingDistance,0.2
;   extruderUseWipe,0
;   extruderWipeDistance,5
;   primaryExtruder,0
;   layerHeight,0.2
;   topSolidLayers,3
;   bottomSolidLayers,3
;   perimeterOutlines,3
;   printPerimetersInsideOut,1
;   startPointOption,1
;   startPointOriginX,0
;   startPointOriginY,0
;   sequentialIslands,0
;   spiralVaseMode,0
;   firstLayerHeightPercentage,100
;   firstLayerWidthPercentage,100
;   firstLayerUnderspeed,0.5
;   useRaft,0
;   raftExtruder,0
;   raftTopLayers,3
;   raftBaseLayers,2
;   raftOffset,3
;   raftSeparationDistance,0.14
;   raftTopInfill,100
;   aboveRaftSpeedMultiplier,0.28
;   useSkirt,1
;   skirtExtruder,0
;   skirtLayers,1
;   skirtOutlines,2
;   skirtOffset,2
;   usePrimePillar,0
;   primePillarExtruder,999
;   primePillarWidth,10
;   primePillarLocation,4
;   primePillarSpeedMultiplier,1
;   useOozeShield,0
;   oozeShieldExtruder,999
;   oozeShieldOffset,2
;   oozeShieldOutlines,1
;   oozeShieldSidewallShape,1
;   oozeShieldSidewallAngle,30
;   oozeShieldSpeedMultiplier,1
;   infillExtruder,0
;   internalInfillPattern,Rectilinear
;   externalInfillPattern,Rectilinear
;   infillPercentage,100
;   outlineOverlapPercentage,20
;   infillExtrusionWidthPercentage,100
;   minInfillLength,3
;   infillLayerInterval,1
;   internalInfillAngles,45,-45
;   overlapInternalInfillAngles,0
;   externalInfillAngles,45,-45
;   generateSupport,0
;   supportExtruder,0
;   supportInfillPercentage,45
;   supportExtraInflation,0
;   supportBaseLayers,0
;   denseSupportExtruder,0
;   denseSupportLayers,0
;   denseSupportInfillPercentage,70
;   supportLayerInterval,1
;   supportHorizontalPartOffset,0.3
;   supportUpperSeparationLayers,1
;   supportLowerSeparationLayers,1
;   supportType,0
;   supportGridSpacing,1
;   maxOverhangAngle,30
;   supportAngles,0,90
;   temperatureName,Primary Extruder,Bed
;   temperatureNumber,0,1
;   temperatureSetpointCount,1,1
;   temperatureSetpointLayers,1,1
;   temperatureSetpointTemperatures,220,60
;   temperatureStabilizeAtStartup,1,1
;   temperatureHeatedBed,0,1
;   temperatureRelayBetweenLayers,0,0
;   temperatureRelayBetweenLoops,0,0
;   fanLayers,1,2
;   fanSpeeds,0,100
;   blipFanToFullPower,0
;   adjustSpeedForCooling,1
;   minSpeedLayerTime,15
;   minCoolingSpeedSlowdown,20
;   increaseFanForCooling,0
;   minFanLayerTime,45
;   maxCoolingFanSpeed,100
;   increaseFanForBridging,0
;   bridgingFanSpeed,100
;   use5D,1
;   relativeEdistances,0
;   allowEaxisZeroing,1
;   independentExtruderAxes,0
;   includeM10123,0
;   stickySupport,1
;   applyToolheadOffsets,0
;   gcodeXoffset,0
;   gcodeYoffset,0
;   gcodeZoffset,0
;   overrideMachineDefinition,1
;   machineTypeOverride,0
;   strokeXoverride,205
;   strokeYoverride,205
;   strokeZoverride,205
;   originOffsetXoverride,0
;   originOffsetYoverride,0
;   originOffsetZoverride,0
;   homeXdirOverride,-1
;   homeYdirOverride,-1
;   homeZdirOverride,-1
;   flipXoverride,1
;   flipYoverride,-1
;   flipZoverride,1
;   toolheadOffsets,0,0|0,0|0,0|0,0|0,0|0,0
;   overrideFirmwareConfiguration,0
;   firmwareTypeOverride,RepRap (Marlin/Repetier/Sprinter)
;   GPXconfigOverride,r2
;   baudRateOverride,115200
;   overridePrinterModels,0
;   printerModelsOverride
;   startingGcode,G28 ; home all axes
;   layerChangeGcode,
;   retractionGcode,
;   toolChangeGcode,
;   endingGcode,M104 S0 ; turn off extruder,M140 S0 ; turn off bed,G91 ; set relative mode,G0 Z10 F3000 ; move 10mm up,G90 ; set absolute mode,G1 X0 Y0 F3000 ; move X and Y home,M84 ; disable motors,G4 P60000 ; wait 2 minutes,M106 S0  ; turn off fan
;   exportFileFormat,gcode
;   celebration,0
;   celebrationSong,Random Song
;   postProcessing,
;   defaultSpeed,3600
;   outlineUnderspeed,0.5
;   solidInfillUnderspeed,0.8
;   supportUnderspeed,0.8
;   rapidXYspeed,4800
;   rapidZspeed,1000
;   minBridgingArea,50
;   bridgingExtraInflation,0
;   bridgingExtrusionMultiplier,1
;   bridgingSpeedMultiplier,1
;   useFixedBridgingAngle,0
;   fixedBridgingAngle,0
;   applyBridgingToPerimeters,0
;   filamentDiameters,1.75|1.75|1.75|1.75|1.75|1.75
;   filamentPricesPerKg,30|46|46|46|46|46
;   filamentDensities,1.25|1.25|1.25|1.25|1.25|1.25
;   useMinPrintHeight,0
;   minPrintHeight,0
;   useMaxPrintHeight,0
;   maxPrintHeight,0
;   useDiaphragm,0
;   diaphragmLayerInterval,20
;   robustSlicing,1
;   mergeAllIntoSolid,0
;   onlyRetractWhenCrossingOutline,1
;   retractBetweenLayers,1
;   useRetractionMinTravel,0
;   retractionMinTravel,3
;   retractWhileWiping,0
;   onlyWipeOutlines,1
;   avoidCrossingOutline,0
;   maxMovementDetourFactor,3
;   toolChangeRetractionDistance,12
;   toolChangeExtraRestartDistance,-0.5
;   toolChangeRetractionSpeed,600
;   externalThinWallType,0
;   internalThinWallType,2
;   thinWallAllowedOverlapPercentage,10
;   singleExtrusionMinLength,1
;   singleExtrusionMinPrintingWidthPercentage,50
;   singleExtrusionMaxPrintingWidthPercentage,200
;   singleExtrusionEndpointExtension,0.2
;   horizontalSizeCompensation,0
G90
M82
M106 S0
M140 S60
M190 S60
M104 S220 T0
M109 S220 T0
G28 ; home all axes
G92 E0
G1 E-5.0000 F3600
G1 Z0.350 F1000
; process Process1
; layer 1, Z = 0.200
T0
; tool H0.200 W0.400
; skirt
G1 X57.191 Y37.132 F4800
G1 Z0.200 F1000
G1 E0.0000 F1080
G92 E0
G1 X58.532 Y35.791 E0.0630 F1800
G1 X58.752 Y35.700 E0.0710
G1 X100.948 Y35.700 E1.4744
G1 X101.168 Y35.791 E1.4824
G1 X102.500 Y37.123 E1.5450
G1 X103.832 Y35.791 E1.6076
G1 X104.052 Y35.700 E1.6156
G1 X146.248 Y35.700 E3.0190
G1 X146.468 Y35.791 E3.0269
G1 X147.809 Y37.132 E3.0900
G1 X147.900 Y37.352 E3.0979
G1 X147.900 Y167.648 E7.4316
G1 X147.809 Y167.868 E7.4395
G1 X146.468 Y169.209 E7.5026
G1 X146.248 Y169.300 E7.5105
G1 X104.052 Y169.300 E8.9139
G1 X103.832 Y169.209 E8.9219
G1 X102.500 Y167.877 E8.9845
G1 X101.168 Y169.209 E9.0471
G1 X100.948 Y169.300 E9.0551
G1 X58.752 Y169.300 E10.4585
G1 X58.532 Y169.209 E10.4665
G1 X57.191 Y167.868 E10.5295
G1 X57.100 Y167.648 E10.5374
G1 X57.100 Y37.352 E14.8711
G1 X57.115 Y37.316 E14.8724
G1 X57.191 Y37.132 F1800
G1 X57.530 Y37.358 F4800
G92 E0
G1 X58.758 Y36.130 E0.0578 F1800
G1 X58.832 Y36.100 E0.0604
G1 X100.868 Y36.100 E1.4585
G1 X100.942 Y36.130 E1.4612
G1 X102.170 Y37.358 E1.5189
G1 X102.200 Y37.432 E1.5216
G1 X102.200 Y167.568 E5.8499
G1 X102.170 Y167.642 E5.8526
G1 X100.942 Y168.870 E5.9103
G1 X100.868 Y168.900 E5.9130
G1 X58.832 Y168.900 E7.3111
G1 X58.758 Y168.870 E7.3138
G1 X57.530 Y167.642 E7.3715
G1 X57.500 Y167.568 E7.3742
G1 X57.500 Y37.552 E11.6985
G1 X57.500 Y37.432 F1800
G1 X57.530 Y37.358 F1800
G1 X102.800 Y37.432 F4800
G92 E0
G1 X102.830 Y37.358 E0.0026 F1800
G1 X104.058 Y36.130 E0.0604
G1 X104.132 Y36.100 E0.0630
G1 X146.168 Y36.100 E1.4612
G1 X146.242 Y36.130 E1.4638
G1 X147.470 Y37.358 E1.5216
G1 X147.500 Y37.432 E1.5242
G1 X147.500 Y167.568 E5.8526
G1 X147.470 Y167.642 E5.8552
G1 X146.242 Y168.870 E5.9130
G1 X146.168 Y168.900 E5.9156
G1 X104.132 Y168.900 E7.3138
G1 X104.058 Y168.870 E7.3164
G1 X102.830 Y167.642 E7.3742
G1 X102.800 Y167.568 E7.3768
G1 X102.800 Y37.632 E11.6985
G1 X102.800 Y37.432 F1800
G92 E0
G1 E-5.0000 F3600
G1 Z0.350 F1000
; inner perimeter
G1 X141.123 Y54.511 F4800
G1 Z0.200 F1000
G1 E0.0000 F3600
G92 E0
G1 X141.459 Y54.839 E0.0156 F1350
G1 X141.852 Y55.094 E0.0312
G1 X142.277 Y55.261 E0.0464
G1 X142.649 Y55.337 E0.0590
G1 X143.106 Y55.348 E0.0742
G1 X143.565 Y55.268 E0.0897
G1 X144.003 Y55.096 E0.1054
G1 X144.112 Y55.026 E0.1097
G1 X144.300 Y55.128 E0.1168
G1 X144.300 Y165.700 E3.7944
G1 X115.830 Y165.700 E4.7413
G1 X116.133 Y165.129 E4.7628
G1 X116.240 Y164.817 E4.7738
G1 X116.360 Y164.274 E4.7923
G1 X116.401 Y163.718 E4.8109
G1 X116.382 Y163.311 E4.8244
G1 X116.289 Y162.763 E4.8429
G1 X116.141 Y162.286 E4.8595
G1 X115.949 Y161.922 E4.8732
G1 X115.577 Y161.508 E4.8917
G1 X115.150 Y161.237 E4.9085
G1 X114.708 Y161.089 E4.9240
G1 X114.401 Y161.051 E4.9343
G1 X110.504 Y161.051 E5.0639
G1 X110.220 Y161.086 E5.0734
G1 X109.925 Y161.168 E5.0836
G1 X109.593 Y161.324 E5.0958
G1 X109.330 Y161.509 E5.1065
G1 X109.069 Y161.772 E5.1188
G1 X108.892 Y162.023 E5.1291
G1 X108.763 Y162.282 E5.1387
G1 X108.664 Y162.572 E5.1489
G1 X108.575 Y162.931 E5.1612
G1 X108.538 Y163.150 E5.1686
G1 X108.499 Y163.682 E5.1863
G1 X108.518 Y164.089 E5.1998
G1 X108.612 Y164.644 E5.2186
G1 X108.793 Y165.199 E5.2380
G1 X108.990 Y165.514 E5.2504
G1 X108.888 Y165.700 E5.2574
G1 X106.000 Y165.700 E5.3535
G1 X106.000 Y55.129 E9.0311
G1 X106.188 Y55.026 E9.0382
G1 X106.292 Y55.094 E9.0423
G1 X106.717 Y55.261 E9.0575
G1 X107.089 Y55.337 E9.0701
G1 X107.546 Y55.348 E9.0853
G1 X108.005 Y55.268 E9.1008
G1 X108.444 Y55.096 E9.1165
G1 X108.835 Y54.843 E9.1320
G1 X109.172 Y54.517 E9.1476
G1 X109.436 Y54.130 E9.1632
G1 X109.619 Y53.698 E9.1788
G1 X109.713 Y53.235 E9.1945
G1 X109.713 Y52.769 E9.2100
G1 X109.621 Y52.309 E9.2256
G1 X109.439 Y51.875 E9.2413
G1 X109.183 Y51.499 E9.2564
G1 X108.919 Y51.227 E9.2690
G1 X108.550 Y50.962 E9.2841
G1 X108.124 Y50.769 E9.2997
G1 X107.666 Y50.664 E9.3153
G1 X107.194 Y50.652 E9.3310
G1 X106.732 Y50.733 E9.3466
G1 X106.299 Y50.903 E9.3621
G1 X106.188 Y50.974 E9.3665
G1 X106.000 Y50.872 E9.3736
G1 X106.000 Y39.300 E9.7585
G1 X109.060 Y39.300 E9.8602
G1 X108.731 Y39.956 E9.8846
G1 X108.573 Y40.532 E9.9045
G1 X108.503 Y41.102 E9.9236
G1 X108.516 Y41.677 E9.9427
G1 X108.609 Y42.225 E9.9612
G1 X108.667 Y42.435 E9.9685
G1 X108.761 Y42.714 E9.9783
G1 X108.889 Y42.971 E9.9878
G1 X109.058 Y43.213 E9.9976
G1 X109.261 Y43.428 E10.0075
G1 X109.494 Y43.611 E10.0173
G1 X109.752 Y43.759 E10.0272
G1 X110.026 Y43.865 E10.0370
G1 X110.314 Y43.930 E10.0468
G1 X110.573 Y43.950 E10.0554
G1 X114.421 Y43.949 E10.1834
G1 X114.845 Y43.876 E10.1978
G1 X115.146 Y43.760 E10.2085
G1 X115.424 Y43.602 E10.2191
G1 X115.779 Y43.295 E10.2347
G1 X116.061 Y42.893 E10.2511
G1 X116.236 Y42.436 E10.2673
G1 X116.360 Y41.874 E10.2865
G1 X116.402 Y41.306 E10.3054
G1 X116.361 Y40.733 E10.3245
G1 X116.241 Y40.189 E10.3430
G1 X116.140 Y39.888 E10.3536
G1 X116.011 Y39.629 E10.3632
G1 X115.916 Y39.493 E10.3687
G1 X116.017 Y39.300 E10.3760
G1 X144.300 Y39.300 E11.3167
G1 X144.300 Y51.048 E11.7074
G1 X143.684 Y50.769 E11.7299
G1 X143.226 Y50.664 E11.7455
G1 X142.754 Y50.652 E11.7612
G1 X142.293 Y50.733 E11.7768
G1 X141.859 Y50.903 E11.7923
G1 X141.465 Y51.156 E11.8079
G1 X141.128 Y51.483 E11.8235
G1 X140.864 Y51.871 E11.8391
G1 X140.681 Y52.302 E11.8547
G1 X140.590 Y52.750 E11.8699
G1 X140.581 Y53.092 E11.8813
G1 X140.594 Y53.268 E11.8872
G1 X140.679 Y53.690 E11.9015
G1 X140.860 Y54.123 E11.9171
G1 X141.011 Y54.345 E11.9260
G1 X141.123 Y54.511 F1350
G92 E0
G1 E-5.0000 F3600
G1 Z0.350 F1000
G1 X116.001 Y41.305 F4800
G1 Z0.200 F1000
G1 E0.0000 F3600
G92 E0
G1 X115.964 Y40.790 E0.0172 F1350
G1 X115.856 Y40.297 E0.0340
G1 X115.769 Y40.042 E0.0429
G1 X115.666 Y39.834 E0.0507
G1 X115.531 Y39.640 E0.0585
G1 X115.368 Y39.468 E0.0664
G1 X115.181 Y39.320 E0.0743
G1 X114.913 Y39.168 E0.0846
G1 X114.984 Y38.900 E0.0938
G1 X144.700 Y38.900 E1.0821
G1 X144.700 Y51.706 E1.5081
G1 X144.476 Y51.798 E1.5161
G1 X144.216 Y51.532 E1.5285
G1 X143.909 Y51.310 E1.5411
G1 X143.555 Y51.150 E1.5540
G1 X143.176 Y51.063 E1.5670
G1 X142.784 Y51.052 E1.5800
G1 X142.401 Y51.120 E1.5929
G1 X142.042 Y51.261 E1.6058
G1 X141.715 Y51.471 E1.6187
G1 X141.436 Y51.742 E1.6316
G1 X141.216 Y52.063 E1.6446
G1 X141.065 Y52.421 E1.6575
G1 X140.989 Y52.795 E1.6702
G1 X140.981 Y53.082 E1.6797
G1 X140.991 Y53.214 E1.6841
G1 X141.063 Y53.572 E1.6963
G1 X141.213 Y53.931 E1.7092
G1 X141.432 Y54.253 E1.7222
G1 X141.710 Y54.525 E1.7351
G1 X142.036 Y54.736 E1.7480
G1 X142.391 Y54.876 E1.7607
G1 X142.694 Y54.938 E1.7710
G1 X143.076 Y54.947 E1.7837
G1 X143.456 Y54.881 E1.7966
G1 X143.820 Y54.738 E1.8096
G1 X144.145 Y54.529 E1.8224
G1 X144.480 Y54.203 E1.8380
G1 X144.700 Y54.296 E1.8459
G1 X144.700 Y166.100 E5.5645
G1 X114.984 Y166.100 E6.5529
G1 X114.911 Y165.836 E6.5620
G1 X115.239 Y165.640 E6.5747
G1 X115.428 Y165.476 E6.5830
G1 X115.622 Y165.239 E6.5932
G1 X115.765 Y164.970 E6.6033
G1 X115.854 Y164.709 E6.6125
G1 X115.964 Y164.215 E6.6293
G1 X116.000 Y163.713 E6.6461
G1 X115.984 Y163.354 E6.6580
G1 X115.899 Y162.856 E6.6748
G1 X115.770 Y162.440 E6.6893
G1 X115.618 Y162.153 E6.7001
G1 X115.317 Y161.817 E6.7151
G1 X114.977 Y161.601 E6.7285
G1 X114.619 Y161.481 E6.7411
G1 X114.376 Y161.451 E6.7492
G1 X110.528 Y161.451 E6.8772
G1 X110.298 Y161.479 E6.8849
G1 X110.065 Y161.544 E6.8930
G1 X109.795 Y161.671 E6.9029
G1 X109.589 Y161.816 E6.9113
G1 X109.376 Y162.030 E6.9213
G1 X109.237 Y162.229 E6.9294
G1 X109.132 Y162.437 E6.9371
G1 X109.048 Y162.684 E6.9458
G1 X108.967 Y163.013 E6.9571
G1 X108.935 Y163.199 E6.9633
G1 X108.899 Y163.687 E6.9796
G1 X108.916 Y164.046 E6.9916
G1 X109.002 Y164.548 E7.0085
G1 X109.158 Y165.028 E7.0253
G1 X109.367 Y165.362 E7.0384
G1 X109.651 Y165.636 E7.0515
G1 X109.997 Y165.832 E7.0647
G1 X109.926 Y166.100 E7.0740
G1 X105.600 Y166.100 E7.2179
G1 X105.600 Y54.295 E10.9365
G1 X105.820 Y54.203 E10.9444
G1 X106.150 Y54.525 E10.9598
G1 X106.476 Y54.736 E10.9727
G1 X106.831 Y54.876 E10.9854
G1 X107.134 Y54.938 E10.9957
G1 X107.516 Y54.947 E11.0084
G1 X107.896 Y54.881 E11.0212
G1 X108.260 Y54.738 E11.0342
G1 X108.585 Y54.529 E11.0471
G1 X108.864 Y54.258 E11.0600
G1 X109.084 Y53.937 E11.0730
G1 X109.235 Y53.579 E11.0859
G1 X109.313 Y53.195 E11.0989
G1 X109.313 Y52.809 E11.1118
G1 X109.237 Y52.427 E11.1247
G1 X109.085 Y52.066 E11.1377
G1 X108.872 Y51.753 E11.1503
G1 X108.656 Y51.532 E11.1606
G1 X108.349 Y51.310 E11.1732
G1 X107.995 Y51.150 E11.1861
G1 X107.616 Y51.063 E11.1991
G1 X107.224 Y51.052 E11.2121
G1 X106.841 Y51.120 E11.2250
G1 X106.482 Y51.261 E11.2379
G1 X106.155 Y51.471 E11.2508
G1 X105.820 Y51.797 E11.2663
G1 X105.600 Y51.704 E11.2743
G1 X105.600 Y38.900 E11.7001
G1 X109.895 Y38.900 E11.8430
G1 X109.974 Y39.151 E11.8517
G1 X109.533 Y39.462 E11.8697
G1 X109.276 Y39.761 E11.8828
G1 X109.107 Y40.100 E11.8954
G1 X108.967 Y40.609 E11.9130
G1 X108.903 Y41.122 E11.9302
G1 X108.915 Y41.639 E11.9474
G1 X109.000 Y42.139 E11.9642
G1 X109.049 Y42.318 E11.9704
G1 X109.131 Y42.560 E11.9789
G1 X109.234 Y42.767 E11.9866
G1 X109.369 Y42.960 E11.9944
G1 X109.532 Y43.132 E12.0023
G1 X109.717 Y43.279 E12.0102
G1 X109.925 Y43.397 E12.0181
G1 X110.143 Y43.481 E12.0259
G1 X110.374 Y43.534 E12.0338
G1 X110.588 Y43.550 E12.0409
G1 X114.387 Y43.549 E12.1673
G1 X114.738 Y43.488 E12.1791
G1 X114.975 Y43.397 E12.1875
G1 X115.192 Y43.274 E12.1958
G1 X115.480 Y43.025 E12.2085
G1 X115.705 Y42.703 E12.2216
G1 X115.852 Y42.320 E12.2352
G1 X115.964 Y41.815 E12.2524
G1 X115.986 Y41.505 E12.2628
G1 X116.001 Y41.305 F1350
; outer perimeter
G1 X105.200 Y166.500 F4800
G92 E0
G1 X105.200 Y38.500 E4.2573 F900
G1 X145.100 Y38.500 E5.5844
G1 X145.100 Y166.500 E9.8417
G1 X105.400 Y166.500 E11.1621
G1 X105.200 Y166.500 F900
G1 X110.205 Y161.920 F4800
G92 E0
G1 X109.997 Y162.019 E0.0077 F900
G1 X109.848 Y162.123 E0.0137
G1 X109.684 Y162.288 E0.0214
G1 X109.581 Y162.435 E0.0274
G1 X109.502 Y162.592 E0.0333
G1 X109.432 Y162.797 E0.0405
G1 X109.359 Y163.095 E0.0507
G1 X109.333 Y163.248 E0.0558
G1 X109.300 Y163.693 E0.0707
G1 X109.315 Y164.003 E0.0810
G1 X109.391 Y164.452 E0.0962
G1 X109.523 Y164.858 E0.1103
G1 X109.680 Y165.108 E0.1202
G1 X109.893 Y165.312 E0.1300
G1 X110.149 Y165.458 E0.1398
G1 X110.435 Y165.539 E0.1497
G1 X114.350 Y165.549 E0.2799
G1 X114.581 Y165.515 E0.2876
G1 X114.801 Y165.435 E0.2954
G1 X115.003 Y165.315 E0.3033
G1 X115.140 Y165.196 E0.3093
